dist/svg/u1F5D3.svg

<?xml version="1.0" encoding="UTF-8"?><svg id="a" xmlns="http://www.w3.org/2000/svg" viewBox="0 0 40 40"><rect x="4" y="4.799" width="32" height="31.03" rx="2.909" ry="2.909" fill="#e5e9ee"/><g><path d="M11,19.453h0c0-.453,.233-.875,.618-1.115l3.009-1.882c.307-.192,.662-.294,1.024-.294h0c1.066,0,1.931,.864,1.931,1.931v11.154c0,.879-.713,1.592-1.592,1.592h0c-.879,0-1.592-.713-1.592-1.592v-9.532l-1.39,.858c-.876,.541-2.006-.089-2.006-1.119Z" fill="#ef4452"/><path d="M19.235,17.647h0c0-.713,.578-1.291,1.291-1.291h7.313c.641,0,1.161,.52,1.161,1.161h0c0,.746-.153,1.483-.451,2.167l-4.424,10.178c-.258,.593-.843,.977-1.49,.977h0c-1.178,0-1.964-1.213-1.484-2.288l4.297-9.612h-4.921c-.713,0-1.291-.578-1.291-1.291Z" fill="#ef4452"/></g><path d="M6.909,4.799h26.182c1.606,0,2.909,1.304,2.909,2.909v4.686H4V7.708c0-1.606,1.304-2.909,2.909-2.909Z" fill="#fdaeb3"/><g><rect width="40" height="40" fill="none"/><g><line x1="10.303" y1="3.587" x2="10.303" y2="6.011" fill="none" stroke="#4b596a" stroke-linecap="round" stroke-miterlimit="10" stroke-width="2.424"/><line x1="16.768" y1="3.587" x2="16.768" y2="6.011" fill="none" stroke="#4b596a" stroke-linecap="round" stroke-miterlimit="10" stroke-width="2.424"/><line x1="23.232" y1="3.587" x2="23.232" y2="6.011" fill="none" stroke="#4b596a" stroke-linecap="round" stroke-miterlimit="10" stroke-width="2.424"/><line x1="29.697" y1="3.587" x2="29.697" y2="6.011" fill="none" stroke="#4b596a" stroke-linecap="round" stroke-miterlimit="10" stroke-width="2.424"/></g></g></svg>

<svg id="Layer_1" data-name="Layer 1" xmlns="http://www.w3.org/2000/svg" viewBox="0 0 40 40"><defs><style>.cls-1{fill:#e5e9ee;}.cls-2{fill:#ef4452;}.cls-3{fill:#fdaeb3;}.cls-4,.cls-5{fill:none;}.cls-5{stroke:#4b596a;stroke-linecap:round;stroke-miterlimit:10;stroke-width:2.424px;}</style></defs><rect class="cls-1" x="4" y="4.799" width="32" height="31.03" rx="2.909"/><path class="cls-2" d="M11,19.453h0a1.314,1.314,0,0,1,.618-1.115l3.008-1.882a1.923,1.923,0,0,1,1.024-.294h0a1.93,1.93,0,0,1,1.931,1.93V29.246a1.592,1.592,0,0,1-1.592,1.592h0A1.592,1.592,0,0,1,14.4,29.246V19.714l-1.391.858A1.315,1.315,0,0,1,11,19.453Z"/><path class="cls-2" d="M19.235,17.647h0a1.292,1.292,0,0,1,1.292-1.292h7.312A1.161,1.161,0,0,1,29,17.516h0a5.422,5.422,0,0,1-.451,2.167L24.125,29.861a1.623,1.623,0,0,1-1.49.977h0a1.625,1.625,0,0,1-1.484-2.288l4.3-9.612H20.527A1.292,1.292,0,0,1,19.235,17.647Z"/><path class="cls-3" d="M6.909,4.8H33.091A2.909,2.909,0,0,1,36,7.708v4.686a0,0,0,0,1,0,0H4a0,0,0,0,1,0,0V7.708A2.909,2.909,0,0,1,6.909,4.8Z"/><rect class="cls-4" width="40" height="40"/><line class="cls-5" x1="10.303" y1="3.587" x2="10.303" y2="6.011"/><line class="cls-5" x1="16.768" y1="3.587" x2="16.768" y2="6.011"/><line class="cls-5" x1="23.232" y1="3.587" x2="23.232" y2="6.011"/><line class="cls-5" x1="29.697" y1="3.587" x2="29.697" y2="6.011"/></svg>
